X: 1
T:Intrada 2
C:Johann Pezel
Z:Transcribed by Frank Nordberg - http://www.musicaviva.com

V:1 Program 1 56 %Trumpet
V:2 Program 1 56 %Trumpet
V:3 Program 1 56 %Trumpet
V:4 Program 1 56 bass %Trumpet
V:5 Program 1 56 bass %Trumpet
M:C
L:1/8
Q:1/4=108
K:C
V:1
g3g gggg|a3a eeee|g3g gggg|f3f ffff|
V:2
e3e eedd|c3c cccc|c3c cc^AA|A3A AAAA|
V:3
G3E CCDD|E3E EEEE|C3C CCCC|C3C DDFF|
V:4
G,3G, G,G,G,G,|C3C CCCC|G,3G, G,G,G,G,|A,3A, A,A,DD|
V:5
C,3C, C,C,B,,B,,|A,,3A,, A,,A,,A,,A,,|E,,3E,, E,,E,,E,,E,,|F,,3F,, F,,F,,F,,F,,|

V:1
d3d eeee|^f3f gggg|g3^f g4::z8|z8|
V:2
B3B cccc|c3c ddee|A2c2B4::z8|z8|
V:3
G3G GGGG|A3A GGEE|D4D4::z B,/C/ DE FFF&gt;F|EC/D/ EF GGG&gt;A|
V:4
B,3B, G,G,G,G,|C3C B,B,A,A,|A,4G,4:: z G,/A,/ B,C DDD&gt;D|CA,/B,/ CD EEE&gt;E|
V:5
F,,3F,, E,,E,,E,,E,,|A,,3A,, B,,B,,C,C,|D,4G,,4::G,,4 z D,/E,/ F,G,|A,A,A,&gt;A, E,2^C,2|

V:1
z8|z B/c/de fA/B/ cd|egg&gt;g gff&gt;f|fee&gt;dd2d2|d4c4:|
V:2
z8|z G/A/ Bc dF/G/ AB|cee&gt;e ccd&gt;d|BBc&gt;BB2c2|c3Bc4:|
V:3
FFF&gt;G EE A&gt;A|D4 z4|z GE&gt;E ECF&gt;F|GGG&gt;G G2A2|G4G4:|
V:4
DDD&gt;D CCC&gt;C|B,4 z4|z B,A,&gt;A, A,2A,G,/A,/|B,B,G,&gt;E, G,B,A,D|F4E4:|
V:5
D,2B,,2C,2^F,,2|G,,2G,2F,4|E,2^C,2A,,2D,,2|G,,2C,,2G,,2^F,,2|G,,4C,4:|

V:1
M:3/4
L:1/4
Q:1/4=168
|:gga|g&gt;fe|z3|z3|z3|z3|dde|
V:2
M:3/4
L:1/4
Q:1/4=168
|:eef|d2c|z3|z3|z3|z3|BBc|
V:3
M:3/4
L:1/4
Q:1/4=168
|:z3|z3|GGA|G&gt;FE|DEC|B,&gt;A,G,|GGC|
V:4
M:3/4
L:1/4
Q:1/4=168
|:CCF,|G,2C|EEF|D2C|B,CA,|G,&gt;^F,G,|z3|
V:5
M:3/4
L:1/4
Q:1/4=168
|:z3|z3|C,C,F,,|G,,2C,|G,,C,D,|G,,3|z3|

V:1
d&gt;cB|z3|z3|gga|g&gt;fe|z3|z3|
V:2
A2G|z3|z3|eef|d2c|z3|z3|
V:3
D2G|DDE|D&gt;CB,|z3|z3|GGA|G&gt;FE|
V:4
z3|B,B,C|A,2G,|CCF,|G,2C|EEF|D2C|
V:5
z3|G,,G,,C,|D,2G,,|z3|z3|C,C,F,,|G,,2C,|

V:1
gga|g&gt;f e/d/|e/f/d2|c3|gga|g&gt;f e/d/|e/f/d2|c3:|
V:2
eef|d2c/B/|cc&gt;B|c3|eef|d2c/B/|cc&gt;B|c3:|
V:3
CED|D2E/F/|GAG|G3|CED|D2E/F/|GAG|G3:|
V:4
G,CA,|B,2C/D/|CA,F|E3|G,CA,|B,2C/D/|CA,F|E3:|
V:5
C,C,F,,|G,,2G,,|C,F,,G,,|C,3|C,C,F,,|G,,2G,,|C,F,,G,,|C,3:|

